X: 333
T: Maozhuxi hezan xinlianxin
L: 1/8
M: 2/4
K: Bb
b> d'c'2 [I:setbarnb 1]| 
f b g f | 
e f b d | 
c4 | 
b> d'c'2 | 
f b g f | 
g/ b/c'3 | 
fb3 | 
f4 |]

@@@ Tune index: 9207
